X: 7821
T:Skroth\"ogen (the Scrapheap)
C:e. Ante Falk
O:Sweden
A:J\"amtland
R:Schottische
M:4/4
K:D
A>GFA d>fed| d>ced (3cdcA2| A>cef g>bag | g>fag (3fgf d2|\
A>GFA d>fed| d>ced (3cdcA2| A>cef g>bac |1 d>edc d4 :|2 d>edc d\
|:ffa|\
agB2- Bgfe| dfA2- Afed| c>ded cBAG| FAdf abaf| \
fgB2- Bgfe dfA2- Afed| c>egb aABc |1 d>edc d :|2 d4 |]
